X: 1
T: Ki Tina'am
O: Israel
R:
Z: John Chambers <jc:trillian.mit.edu>
M: 4/4
L: 1/8
P:
K: BDorian
[| "Bm"B2B2 "G"d3e | "Bm"dcBc "A"A4 | "Bm"B2B2 "F#m"f2a2 | "E"gffe "F#m"f2df |
| "E"e3f "Em"eBe2 | "Bm"d3e "A"cBA2 | "Bm"B2d2 "A"cBBA | "Bm"B2 "A"(3cBA "Bm"B4 |
| "Bm"f>g fe f4 |  fage f4 | b3a aggf | "F#m"fagf "E"e2B2 |
|: "Bm"d3f "Em"edeB | "Bm"d3f "Em"ede2 | "A"c2de cBBA | "Bm"B2 "A"(3cBA "Bm"B4 :|

%%sep 1 1 500

